!!!!SEGMENT: pl-kk--kk-i-6--058_anonim--deo-gratias.krn
!!!cenid: 16xx:1054
!!!COM: Anonim
!!!COM-rismid: pe30004985
!!!CDT:
!!!CNT:
!!!OTL: Deo gratias
!!!PDT:
!!!AGN:
!!!SMS-siglum: PL-Kk
!!!SMS-shelfmark: Kk.I.6
!!!SMS-shelfwork: 058 W
!!!SMS-variant:
!!!SMS-altvar:
!!!NIFC-rismid: 1001136566
!!!URL-scan: http://repozytorium.nifc.pl/skany/pl-kk-nut--i-6
!!!ONB-nifc: UWAGA: C (skan 0087, s. 171), T (skan 0198, s. 201), B (skan 0311, s. 205) Solenne
!!!key:
**kern	**text	**kern	**text	**kern	**text
*part3	*part3	*part2	*part2	*part1	*part1
*staff3	*staff3	*staff2	*staff2	*staff1	*staff1
*Iempty	*	*Itenor	*	*Ivox	*
*I"Baſsus.	*	*I"Tenor.	*	*I"Cantus.	*
*I'B	*	*I'T	*	*I'S	*
*clefF4	*	*clefC4	*	*clefC4	*
*k[]	*	*k[]	*	*k[]	*
*d:	*	*d:	*	*d:	*
*M2/2	*	*M2/2	*	*M2/2	*
*met(C|)	*	*met(C|)	*	*met(C|)	*
=1-	=1-	=1-	=1-	=1-	=1-
*lig	*	*	*	*	*
!LO:TX:a:t=Benedicam(us) de B.V.M.	!	!LO:TX:a:t=Benedicam(us) de B.V.M.	!	!LO:TX:a:t=Benedicam(us) de B.V.M.	!
1D	De-	0r	.	1r	.
=2-	=2-	=2-	=2-	=2-	=2-
*	*	*	*	*lig	*
1F	.	.	.	1A	De-
*Xlig	*	*	*	*	*
=3-	=3-	=3-	=3-	=3-	=3-
*lig	*	*	*	*	*
!	!	!	!	!LO:TX:t=P:problem=kasownik przed ligaturą	!
1G	.	1r	.	1Bn	.
*	*	*	*	*Xlig	*
=4-	=4-	=4-	=4-	=4-	=4-
*	*	*lig	*	*lig	*
1A	.	1A	De-	1c	.
=5-	=5-	=5-	=5-	=5-	=5-
!	!	!LO:TX:t=P:problem=kasownik przed ligaturą	!	!	!
1G	.	1Bn	.	1B	.
*Xlig	*	*Xlig	*	*Xlig	*
=6-	=6-	=6-	=6-	=6-	=6-
*lig	*	*	*	*	*
*	*	*	*	*lig	*
1F	.	4c\	.	1A	.
.	.	4A\	-o	.	.
.	.	1d\	gra-	.	.
=7-	=7-	=7-	=7-	=7-	=7-
!	!	!	!	!LO:TX:t=P:problem=kreska pseudotaktowa	!
1E	.	.	.	1G	.
*	*	*2\right	*	*	*
.	.	2c#X\	-ti-	.	.
*Xlig	*	*	*	*Xlig	*
=8-	=8-	=8-	=8-	=8-	=8-
1D	-o	2d\	-as	2F/	o
.	.	2.A\	De-	2.F/	gra-
=9-	=9-	=9-	=9-	=9-	=9-
1F	gra-	.	.	.	.
.	.	4B\	.	4G/	.
!	!	!	!	!LO:TX:t=P:problem=kreska pseudotaktowa	!
.	.	2cny\	-o	[y2A/	.
=10-	=10-	=10-	=10-	=10-	=10-
*lig	*	*	*	*	*
!	!	!	!	!LO:N:xstem:cue	!
1D	.	4d\	gra-	4A/]	.
.	.	4e\	.	4G/	.
.	.	1f\	.	4A/	.
!	!	!	!	!LO:TX:t=P:problem=kreska pseudotaktowa	!
.	.	.	.	4B\	.
=11-	=11-	=11-	=11-	=11-	=11-
1C	.	.	.	4c\	.
.	.	.	.	4G/	.
.	.	2e\	-[[t]]-	1c\	.
*Xlig	*	*	*	*	*
=12-	=12-	=12-	=12-	=12-	=12-
*lig	*	*	*	*	*
1D	.	1f	.	.	.
!	!	!	!	!LO:TX:t=P:problem=kreska pseudotaktowa	!
.	.	.	.	2B\	-ti-
=13-	=13-	=13-	=13-	=13-	=13-
!	!	!LO:LB:g=original	!	!	!
1C	.	2.c\	.	1c	-as
.	.	4c\	-ti-	.	.
*Xlig	*	*	*	*	*
=14-	=14-	=14-	=14-	=14-	=14-
!	!	!	!	!LO:LB:g=original	!
1D	.	2F,/	-as,	1r	.
.	.	4A/	De-	.	.
.	.	4B-X\	.	.	.
=15-	=15-	=15-	=15-	=15-	=15-
*lig	*	*	*	*lig	*
1F	.	2c\	-o	1A	De-
.	.	2.d\	gra-	.	.
=16-	=16-	=16-	=16-	=16-	=16-
!	!	!	!	!LO:TX:t=P:problem=bemol przed ligaturą	!
1G	.	.	.	1B-X	.
.	.	4c\	.	.	.
.	.	4B-X\	.	.	.
.	.	4G/	.	.	.
*Xlig	*	*	*	*Xlig	*
=17-	=17-	=17-	=17-	=17-	=17-
1F	.	2c\	.	2A/	-o
!	!	!	!	!LO:TX:t=P:problem=kreska pseudotaktowa	!
.	.	2A/	.	2D/	gra-
=18-	=18-	=18-	=18-	=18-	=18-
!LO:LB:g=original	!	!	!	!	!
1E	-ti-	2G/	.	2.E/	.
.	.	2E/	-ti-	.	.
.	.	.	.	4E/	-ti-
=19-	=19-	=19-	=19-	=19-	=19-
0D;;	-as.	0A;;	-as.	0F#X;;	-as.
=21||-	=21||-	=21||-	=21||-	=21||-	=21||-
*M2/2	*	*M2/2	*	*M2/2	*
*met(C|)	*	*met(C|)	*	*met(C|)	*
*	*	*lig	*	*	*
!LO:LB:g=original	!	!LO:LB:g=original	!	!LO:LB:g=original	!
!LO:TX:a:t=In duplicib(us)	!	!LO:TX:t=In duplicib(us)	!	!LO:TX:a:t=In duplicib(us)	!
1D	De-	1d	De-	1A	De-
=22-	=22-	=22-	=22-	=22-	=22-
*	*	*	*	*lig	*
4AA/	.	1c	.	1A	-o
4BB/	.	.	.	.	.
4C/	.	.	.	.	.
4D/	.	.	.	.	.
*2\right	*	*Xlig	*	*	*
=23-	=23-	=23-	=23-	=23-	=23-
2.E\	.	1Bn	.	1G	.
4D/	.	.	.	.	.
*	*	*	*	*Xlig	*
=24-	=24-	=24-	=24-	=24-	=24-
*	*	*	*	*lig	*
2.C/	.	0A	-o	1A	.
4BB/	.	.	.	.	.
=25-	=25-	=25-	=25-	=25-	=25-
2AA/	-o	.	.	1c	.
1A\	gra-	.	.	.	.
*	*	*	*	*Xlig	*
=26-	=26-	=26-	=26-	=26-	=26-
*	*	*	*	*lig	*
.	.	2r	.	1Bny	.
2G#X\	.	2B\	gra-	.	.
=27-	=27-	=27-	=27-	=27-	=27-
2A\	.	2c#X\	.	1A	.
2F\	.	1d\	.	.	.
*	*	*	*	*Xlig	*
=28-	=28-	=28-	=28-	=28-	=28-
*	*	*	*	*lig	*
!LO:LB:g=original	!	!	!	!	!
2.E\	.	.	.	1G	.
.	.	2c#X\	-ti-	.	.
4E\	-ti-	.	.	.	.
=29-	=29-	=29-	=29-	=29-	=29-
1D	-as	1d	-as	1A	.
*	*	*	*	*Xlig	*
=30-	=30-	=30-	=30-	=30-	=30-
*	*	*	*	*lig	*
!	!	!LO:LB:g=original	!	!	!
2r	.	2cn\	gra-	1A	.
1D\	De-	2d\	.	.	.
=31-	=31-	=31-	=31-	=31-	=31-
.	.	1B	.	1G	.
2C#X/	-o	.	.	.	.
*	*	*	*	*Xlig	*
=32-	=32-	=32-	=32-	=32-	=32-
*	*	*	*	*lig	*
2.D/	gra-	2A/	.	1Fny	.
.	.	1A\	.	.	.
4Cny/	.	.	.	.	.
=33-	=33-	=33-	=33-	=33-	=33-
2.BBn/	.	.	.	1D	.
.	.	2G#X/	-ti-	.	.
4BB/	-ti-	.	.	.	.
*	*	*	*	*Xlig	*
=34-	=34-	=34-	=34-	=34-	=34-
!	!	!	!	!LO:LB:g=original	!
2AA/	-as	1A	-as	1E	.
2.AA/	gra-	.	.	.	.
=35-	=35-	=35-	=35-	=35-	=35-
*	*	*	*	*lig	*
.	.	2r	.	1E	gra-
4BB/	.	.	.	.	.
4C/	.	2A/	De-	.	.
4D/	.	.	.	.	.
=36-	=36-	=36-	=36-	=36-	=36-
4E\	.	4Gny/	.	1G	.
4F\	.	4A/	.	.	.
4Gny\	.	4B\	.	.	.
4E\	.	4G/	.	.	.
=37-	=37-	=37-	=37-	=37-	=37-
2.F\	.	4c\	.	1A	.
.	.	4B\	-o	.	.
.	.	2.A/	gra-	.	.
4E\	.	.	.	.	.
*	*	*	*	*Xlig	*
=38-	=38-	=38-	=38-	=38-	=38-
*	*	*	*	*lig	*
1D	.	.	.	1D	.
.	.	8B\L	.	.	.
.	.	8c\J	.	.	.
.	.	1d\	.	.	.
=39-	=39-	=39-	=39-	=39-	=39-
!LO:LB:g=original	!	!	!	!	!
1AA	.	.	.	1E	.
.	.	2c#X\	-ti-	.	.
*	*	*	*	*Xlig	*
=40-	=40-	=40-	=40-	=40-	=40-
*	*	*	*	*lig	*
2BB/	.	2d\	-as	1G	.
2C#X/	-ti-	2r	.	.	.
=41-	=41-	=41-	=41-	=41-	=41-
!	!	!LO:LB:g=original	!	!	!
2D/	-as	2r	.	1F	.
1D\	De-	2A/	De-	.	.
*	*	*	*	*Xlig	*
=42-	=42-	=42-	=42-	=42-	=42-
*	*	*	*	*lig	*
.	.	2G/	.	1E	.
2C#X/	-o	2E/	.	.	.
=43-	=43-	=43-	=43-	=43-	=43-
4D/	gra-	2F/	.	1D	.
4Cny/	.	.	.	.	.
2BB/	.	4D/	-o	.	.
.	.	4d\	gra-	.	.
=44-	=44-	=44-	=44-	=44-	=44-
4AA/	.	4c#X\	.	1E	.
4BB/	.	4d\	.	.	.
4C#X/	.	4e\	.	.	.
4AA/	.	4c#\	.	.	.
*	*	*	*	*Xlig	*
=45-	=45-	=45-	=45-	=45-	=45-
4D\	.	4d\	.	1F	.
4E\	.	4A/	.	.	.
4F\	.	1A\	.	.	.
4D\	.	.	.	.	.
=46-	=46-	=46-	=46-	=46-	=46-
2.AA/	.	.	.	1E	-ti-
.	.	2A/	-ti-	.	.
4AA/	-ti-	.	.	.	.
=47-	=47-	=47-	=47-	=47-	=47-
0D;;	-as	0A;;	-as.	0D;;	-as.
=49||-	=49||-	=49||-	=49||-	=49||-	=49||-
*M2/2	*	*M2/2	*	*M2/2	*
*met(C|)	*	*met(C|)	*	*met(C|)	*
*	*	*2\left	*	*	*
!!LO:TX:t=P:problem:2\middle:global
!LO:LB:g=original	!	!LO:LB:g=original	!	!LO:LB:g=original	!
!LO:TX:t=P:problem=kreska pseudotaktowa	!	!LO:TX:t=P:problem=kreska pseudotaktowa	!	!	!
!LO:TX:a:t=Infra Octavas et in Votivis	!	!LO:TX:a:t=Infra Octavas\net in Votivis	!	!LO:TX:a:t=Infra Octavas\net in Votivis	!
1G	De-	1Bn	De-	1G	De-
=50-	=50-	=50-	=50-	=50-	=50-
*2\left	*	*	*	*lig	*
2E\	-o	2c\	-o	1G	-o
2.G\	.	4B\	.	.	.
!	!	!LO:TX:t=P:problem=kreska pseudotaktowa	!	!	!
.	.	4A/	.	.	.
=51-	=51-	=51-	=51-	=51-	=51-
!	!	!LO:TX:t=P:problem=kreska pseudotaktowa	!	!	!
.	.	1G	.	1E	.
4F\	.	.	.	.	.
4E\	.	.	.	.	.
!LO:TX:t=P:problem=kreska pseudotaktowa	!	!	!	!	!
4D/	.	.	.	.	.
*	*	*	*	*Xlig	*
=52-	=52-	=52-	=52-	=52-	=52-
2Cny/	.	2A/	.	1G	.
2E\	.	1G/	.	.	.
=53-	=53-	=53-	=53-	=53-	=53-
*	*	*	*	*lig	*
2.D/	gra-	.	.	1Fn	.
!	!	!LO:TX:t=P:problem=kreska pseudotaktowa	!	!	!
.	.	2Fn/	.	.	.
!LO:TX:t=P:problem=kreska pseudotaktowa	!	!	!	!	!
4D/	-ti-	.	.	.	.
=54-	=54-	=54-	=54-	=54-	=54-
*custos:D	*	*	*	*	*
1AA	-as	2E/	gra-	1E	.
!	!	!LO:TX:t=P:problem=kreska pseudotaktowa	!	!	!
.	.	2A/	-ti-	.	.
*	*	*	*	*Xlig	*
=55-	=55-	=55-	=55-	=55-	=55-
*	*	*	*	*lig	*
!	!	!LO:LB:g=original	!	!	!
!LO:LB:g=original	!	!LO:TX:t=P:problem=kreska pseudotaktowa	!	!	!
1D	DE-	1A	-as	1F	.
=56-	=56-	=56-	=56-	=56-	=56-
*	*	*	*ij	*	*
!	!	!	!	!LO:TX:t=P:problem=kreska pseudotaktowa	!
2.GG/	-O	2.B\	De-	1D	.
4AA/	.	4c\	-o	.	.
*	*	*	*	*Xlig	*
=57-	=57-	=57-	=57-	=57-	=57-
2BBn/	.	2.d\	gra-	0F	gra-
!LO:TX:t=P:problem=kreska pseudotaktowa	!	!	!	!	!
2GG/	.	.	.	.	.
!	!	!LO:TX:t=P:problem=kreska pseudotaktowa	!	!	!
.	.	4d\	-ti-	.	.
=58-	=58-	=58-	=58-	=58-	=58-
1D	.	2d,\	-as	.	.
*	*	*	*Xij	*	*
.	.	1d\	De-	.	.
=59-	=59-	=59-	=59-	=59-	=59-
*	*	*	*	*custos:F	*
1AA	.	.	.	1E	.
.	.	2c\	-o	.	.
=60-	=60-	=60-	=60-	=60-	=60-
!	!	!	!	!LO:LB:g=original	!
2.D/	gra-	2.d\	gra-	2.F#X/	.
4D/	-ti-	4d\	-ti-	4F#/	-ti-
=61-	=61-	=61-	=61-	=61-	=61-
0GG;;	-as	0d;;	-as	0G;;	-as.
==	==	==	==	==	==
*-	*-	*-	*-	*-	*-
!!!system-decoration: [(s1,s2,s3)]
!!!AIN: 1 empty 1 tenor 1 vox
!!!ENC: Katarzyna Serwa
!!!END: 2021-10-28
!!!ENC: Berenika Jozajtis
!!!END: 2021-10-25
